src/img/favicon.svg

<svg width="32" height="32" viewBox="0 0 32 32" fill="none" xmlns="http://www.w3.org/2000/svg">
<rect width="32" height="32" fill="#75D281"/>
<path d="M15.511 3.00002C15.3831 3.00012 15.2482 3.00023 15.1218 3.01531C13.6525 3.13789 12.3022 3.76208 11.3406 4.89921C10.2941 6.1367 10.041 7.44052 10.0533 9.01595L7.25385 9.01167C7.12846 9.01156 6.99883 9.00797 6.86738 9.00433C6.50214 8.99422 6.12276 8.98371 5.78062 9.0464C5.57428 9.08422 5.39424 9.18458 5.24913 9.33563C4.99507 9.6001 4.9889 9.93417 5.00541 10.2764C5.03145 10.816 5.07779 11.3564 5.12409 11.8961C5.14927 12.1897 5.17446 12.4833 5.19634 12.7765L5.66099 18.7803L5.88706 21.6796C5.8982 21.8227 5.90709 21.9673 5.91602 22.1124C5.94795 22.6313 5.98035 23.1577 6.11733 23.6542C6.35398 24.4982 6.82298 25.2587 7.4709 25.8494C8.03716 26.3636 8.72159 26.7304 9.46351 26.917C10.091 27.0685 10.8201 27.0514 11.5049 27.0353C11.7088 27.0305 11.9087 27.0258 12.1008 27.0256L15.8695 27.0245L19.1609 27.0259C19.3408 27.0259 19.5259 27.0303 19.7132 27.0348C20.3212 27.0492 20.9549 27.0643 21.523 26.9319C22.3222 26.7459 23.131 26.3071 23.7145 25.7286C24.2575 25.19 24.6913 24.4708 24.8808 23.7278C25.0259 23.1594 25.0623 22.5359 25.0976 21.9311C25.1089 21.7362 25.1202 21.543 25.135 21.3544L25.4439 17.3781L25.8291 12.4958C25.8477 12.2546 25.8718 12.0109 25.896 11.7667C25.9484 11.2373 26.0012 10.7039 26 10.1807C25.9994 9.85893 25.9313 9.55873 25.7007 9.31976C25.542 9.15509 25.2826 9.07467 25.0631 9.03886C24.734 8.98521 24.3732 8.99478 24.0241 9.00404C23.8951 9.00746 23.7676 9.01084 23.644 9.01097C22.7636 9.00925 21.8829 9.01237 21.0024 9.02026L20.9646 9.02081C20.9853 7.33367 20.6097 5.88594 19.3968 4.65203C18.3833 3.60192 16.9887 3.00611 15.5295 3L15.511 3.00002ZM20.8467 12.6234L20.8941 12.6262C20.8954 12.6294 20.8966 12.6324 20.8977 12.6352C20.8983 12.6366 20.8989 12.638 20.8994 12.6394C20.9015 12.6444 20.9034 12.6488 20.905 12.6525L20.907 12.6571C20.9157 12.6768 20.9173 12.6804 20.9168 12.7122C20.9017 14.7809 20.3479 17.4445 18.8797 18.9596C17.52 20.3626 15.4086 21.0511 13.4832 21.0892C14.38 19.4024 15.8212 17.8027 17.3078 16.6146C17.5377 16.431 17.7783 16.265 18.0192 16.099C18.1742 15.9921 18.3293 15.8851 18.4817 15.7734C18.6296 15.6648 18.8287 15.5176 18.8497 15.3197C18.8689 15.1374 18.772 14.9959 18.6578 14.8657C18.498 14.773 18.3809 14.7344 18.1984 14.7879C17.9392 14.864 17.6781 15.0558 17.4424 15.2288C17.38 15.2746 17.3193 15.3192 17.2609 15.3599C15.3548 16.7097 13.7709 18.4644 12.6228 20.4982C12.584 18.8435 12.9608 17.4573 13.9757 16.1263C15.4986 14.1289 18.4136 12.9549 20.8467 12.6234ZM6.04972 10.0479L24.9612 10.0477C24.894 10.6846 24.8506 11.3273 24.8072 11.9691C24.783 12.3266 24.7588 12.6841 24.7306 13.04L24.2214 19.4211L24.0309 21.7725C24.0225 21.8746 24.0147 21.9772 24.007 22.08C23.9764 22.4857 23.9456 22.8951 23.8673 23.2923C23.787 23.6999 23.6309 24.0542 23.4195 24.4097C23.338 24.5334 23.2495 24.6525 23.1546 24.7663C22.6064 25.4214 21.7064 25.9094 20.8516 25.974C20.3861 26.0092 19.9072 26.0004 19.4328 25.9916C19.2275 25.9879 19.0229 25.9841 18.8206 25.9839L14.8971 25.9828L11.7749 25.9842C11.6243 25.9843 11.4711 25.9875 11.3167 25.9906C10.8431 26.0004 10.3583 26.0105 9.90323 25.9321C9.30632 25.8279 8.74848 25.565 8.2885 25.1707C7.7375 24.7061 7.34207 24.0839 7.1555 23.3878C7.02787 22.9263 6.99605 22.4347 6.9648 21.952C6.95695 21.8307 6.94913 21.71 6.93985 21.5905L6.75415 19.198L6.04972 10.0479ZM21.2666 11.5147L21.2525 11.5162C18.3818 11.8483 15.1137 13.029 13.2581 15.3545C12.0655 16.849 11.4139 18.793 11.6291 20.7072C11.6764 21.1276 11.7716 21.5294 11.9088 21.9291C11.8933 21.9688 11.8743 22.0164 11.8528 22.0706C11.6172 22.6627 11.0696 24.039 11.26 24.4461C11.3151 24.5637 11.4273 24.6426 11.549 24.6813C11.5991 24.697 11.6496 24.7061 11.7018 24.7122C11.8626 24.6857 12.0113 24.6525 12.1081 24.5087C12.212 24.3539 12.3185 23.9822 12.4095 23.6643C12.4529 23.5128 12.4928 23.3735 12.5273 23.2757C12.6452 22.9406 12.7791 22.6111 12.9129 22.282L12.9144 22.2782C12.9301 22.2396 12.9457 22.2011 12.9614 22.1626C15.3286 22.1696 17.8569 21.4286 19.5694 19.7389C21.4846 17.8489 21.967 14.8012 21.9708 12.2221C21.9711 12.0187 21.9571 11.7774 21.8083 11.6219C21.7169 11.5262 21.5792 11.4974 21.4514 11.5002C21.3897 11.5016 21.3281 11.5081 21.2666 11.5147ZM15.2808 4.03436C15.3725 4.02868 15.4645 4.02356 15.5563 4.0242C16.6807 4.03209 17.8065 4.53499 18.5967 5.32743C19.6725 6.40645 19.8926 7.55148 19.8949 9.01603L15.7752 9.01379L11.1394 9.01956C11.1039 7.76067 11.3067 6.61084 12.1326 5.6168C12.926 4.66187 14.0584 4.14357 15.2808 4.03436Z" fill="#030A06"/>
</svg>

<svg xmlns="http://www.w3.org/2000/svg" width="32" height="32" fill="none">
  <path fill="#75D281" d="M0 0h32v32H0z"/>
  <path fill="#030A06" d="M15.511 3c-.128 0-.263 0-.39.015-1.469.123-2.819.747-3.78 1.884-1.047 1.238-1.3 2.542-1.288 4.117l-2.8-.004c-.125 0-.254-.004-.386-.008-.365-.01-.744-.02-1.086.042a.972.972 0 0 0-.532.29c-.254.264-.26.598-.244.94.026.54.073 1.08.12 1.62.024.294.05.587.071.88l.465 6.004.226 2.9c.011.143.02.287.029.432.032.52.064 1.046.201 1.542a4.652 4.652 0 0 0 3.346 3.263c.628.151 1.357.134 2.042.118.204-.005.404-.01.596-.01h7.06c.18 0 .365.005.552.01.608.014 1.242.03 1.81-.103a4.736 4.736 0 0 0 2.192-1.203c.543-.539.976-1.258 1.166-2.001.145-.569.181-1.192.217-1.797.01-.195.022-.388.037-.577l.309-3.976.385-4.882a33.7 33.7 0 0 1 .067-.73c.052-.529.105-1.062.104-1.585 0-.322-.069-.622-.3-.861-.158-.165-.417-.245-.637-.281-.329-.054-.69-.044-1.039-.035-.129.003-.256.007-.38.007-.88-.002-1.761.001-2.642.01h-.037c.02-1.687-.355-3.135-1.568-4.369A5.406 5.406 0 0 0 15.53 3h-.019Zm5.336 9.623.047.003a.842.842 0 0 1 .004.01l.001.003.006.014.002.004c.009.02.01.023.01.055-.015 2.069-.57 4.733-2.037 6.248-1.36 1.403-3.471 2.091-5.397 2.13.897-1.688 2.338-3.287 3.825-4.475.23-.184.47-.35.711-.516.155-.107.31-.214.463-.326.148-.108.347-.255.368-.453.019-.183-.078-.324-.192-.454-.16-.093-.277-.132-.46-.078-.259.076-.52.268-.756.44-.062.047-.123.091-.181.132a15.834 15.834 0 0 0-4.638 5.138c-.039-1.655.338-3.04 1.353-4.372 1.523-1.997 4.438-3.171 6.87-3.503ZM6.05 10.048H24.96c-.067.637-.11 1.28-.154 1.921-.024.358-.048.715-.076 1.071l-.51 6.381-.19 2.352-.024.307c-.03.406-.061.815-.14 1.212a3.45 3.45 0 0 1-.448 1.118c-.081.123-.17.242-.264.356-.549.655-1.449 1.143-2.303 1.208-.466.035-.945.026-1.42.018-.204-.004-.41-.008-.611-.008l-3.924-.001-3.122.001c-.15 0-.304.003-.458.007-.474.01-.959.02-1.414-.059a3.372 3.372 0 0 1-1.614-.761 3.526 3.526 0 0 1-1.133-1.783c-.128-.462-.16-.953-.191-1.436a28.228 28.228 0 0 0-.025-.362l-.186-2.392-.704-9.15Zm15.217 1.467-.014.001c-2.871.332-6.14 1.513-7.995 3.838-1.192 1.495-1.844 3.439-1.629 5.353.047.42.143.822.28 1.222l-.056.142c-.236.592-.783 1.968-.593 2.375a.468.468 0 0 0 .289.235c.05.016.1.025.153.031.16-.026.31-.06.406-.203.104-.155.21-.527.301-.845.044-.151.084-.29.118-.388.118-.335.252-.665.386-.994l.001-.004.047-.115c2.368.007 4.896-.734 6.608-2.424 1.916-1.89 2.398-4.938 2.402-7.517 0-.203-.014-.445-.163-.6-.091-.096-.229-.125-.357-.122a2.204 2.204 0 0 0-.184.015Zm-5.986-7.48a4.01 4.01 0 0 1 .275-.01c1.125.007 2.25.51 3.04 1.302 1.076 1.08 1.297 2.224 1.299 3.689l-4.12-.002-4.636.006c-.035-1.26.168-2.41.994-3.403.793-.955 1.925-1.473 3.148-1.583Z"/>
</svg>
